X: 112
T: Stoney point.
%R: jig
Z: 2017 John Chambers <jc:trillian.mit.edu>
B: John Treat - "Gamut for the Fifes", 1779, p.10 #2
F: https://archive.org/details/GamutFortheFifes
M: 6/8
L: 1/8
K: D
% - - - - - - - - - - - - - - - - - - - - - - - - -
F/G/ |\
AdA FDF | (3d/c/B/cd AFD | FGA def | e3 E2A/G/ |\
FDF AFA | BGB cBA | edc Adc | d3 D2 :|
|: d/c/ |\
BcA def | gfe agf | ecA FAc | A3 G3 |\
FAd dAF | GBe ecA | fed Adc | d3 D2 :|
% - - - - - - - - - - - - - - - - - - - - - - - - -
